X:5
T:Memories of Simon Fraser
R:marching air
C:Brenda Stubbert
O:20th Century Cape Breton
S:Tune of the Month. July,1998.
D:In Jig Time, 1. Celestial Entertainment 2. Greentrax.
B:previously unpublished
A:<http://www.capebretonet.com/Music/Stubbert>
N:Contacts ...
N:Recordings and bookings
N:..... 
N:Tune books and related recordings
N:..... Cranford Publications <http://www.cranfordpub.com>
H:Copyrights:Published by Stubbert Music (SOCAN) & Grian Music
Z:This abc transcription is for personal use only,
Z:provided this notice remains attached.
Z:Used by permission of the composer and publisher.
Z:Paul Stewart Cranford - psc@cranfordpub.com
Q:222
L:1/8
M:C
K:D
A,| {A,}D3 E {E}F>ED<F| A2 d2 {e}f3 e| d>BA<d B>AG<F| E4 E<GF<E|!
{A,}D3 E {E}F>ED<F| A2 d2 {e}f3 e| d>BA<F E2F2| {A,}D4 D2 z:|!
g|: f>ed<f e>dB<c| d2 D2 F2 A2| G2 e2 F2 d2|[1 e2 E2 E3 g|!
f>ed<f e>dB<c| d2 D2 F2 A2| G>AB<G A2 c2| d4 d2 d<g:|!
[2 e2 E2 E<GF<E| {A,}D3 E  {E}F>ED<F| A2 d2  {e}f3 e| d>BA<F E2 F2| {A,}D4
D2|]!
